icons/desktop/16/svg/data-clearance-16.svg

<svg width="16" height="16" viewBox="0 0 16 16" fill="none" xmlns="http://www.w3.org/2000/svg">
<path fill-rule="evenodd" clip-rule="evenodd" d="M4.27246 0.523367C4.49043 0.512377 4.88867 0.49929 5.09863 0.530203C7.8336 0.943198 10.0667 3.18401 10.6768 5.91497L11.6934 5.04192C11.8473 4.91005 12.0431 4.8432 12.25 4.86419C12.4518 4.88317 12.6377 4.98184 12.7646 5.13958C15.0016 7.91158 15.1039 11.8293 13.0029 13.9013C12.0189 15.1192 10.4528 15.8574 8.58789 15.9814C8.40595 15.9934 8.22294 15.999 8.04199 15.999C6.16201 15.9989 4.3536 15.3565 3.22461 14.2665C1.67896 12.7726 1.14853 10.9214 1.73047 9.05559C1.93571 8.39638 2.72118 6.9745 3.20606 6.38665C4.37085 4.82469 4.06459 2.87249 3.59961 1.51555C3.52386 1.29274 3.55765 1.0473 3.68848 0.852468C3.82048 0.657468 4.03746 0.535367 4.27246 0.523367ZM5.32324 2.10442C5.7651 4.10424 5.44769 5.88953 4.38477 7.31243C4.00473 7.7747 3.30917 9.02595 3.16113 9.50091C2.64214 11.1649 3.47463 12.4244 4.26563 13.1884C4.71858 13.6262 5.34492 13.9701 6.05762 14.1962C6.03362 13.9459 6.01955 13.7045 6.01953 13.4833C6.01953 11.3263 6.68228 9.84327 7.73828 9.06927C7.80028 9.02328 7.86949 9.00188 7.93848 9.00188V8.99993H7.94238V9.00188C8.01121 9.00195 8.07974 9.02342 8.1416 9.06927H8.14453C9.20027 9.84336 9.86328 11.3266 9.86328 13.4833C9.86327 13.7193 9.84734 13.979 9.82031 14.248C10.6727 13.9903 11.3749 13.5419 11.8584 12.9316C11.8792 12.9058 11.9011 12.8811 11.9248 12.8583C13.3438 11.4883 13.3549 8.81377 12.0479 6.71477L10.5811 7.97454C10.3591 8.1645 10.0453 8.20873 9.7793 8.08782C9.51335 7.96484 9.34187 7.69911 9.3418 7.40618C9.3418 4.92129 7.6101 2.67954 5.32324 2.10442Z" fill="black"/>
</svg>

<!-- This Source Code Form is subject to the terms of the Mozilla Public
   - License, v. 2.0. If a copy of the MPL was not distributed with this
   - file, You can obtain one at http://mozilla.org/MPL/2.0/. -->
<svg xmlns="http://www.w3.org/2000/svg" width="16" height="16" fill="context-fill" fill-opacity="context-fill-opacity" viewBox="0 0 16 16">
    <path fill-rule="evenodd" d="M4.272.523C4.49.513 4.89.5 5.1.53c2.735.413 4.968 2.654 5.578 5.385l1.016-.873a.75.75 0 0 1 1.071.098c2.238 2.772 2.34 6.69.239 8.761-.984 1.218-2.55 1.956-4.415 2.08a8 8 0 0 1-.546.018c-1.88 0-3.688-.643-4.817-1.732-1.546-1.494-2.076-3.346-1.495-5.211.206-.66.991-2.081 1.476-2.67 1.165-1.561.859-3.514.394-4.87a.753.753 0 0 1 .673-.992m1.051 1.581c.442 2 .125 3.786-.938 5.208-.38.463-1.076 1.714-1.224 2.189-.519 1.664.314 2.923 1.105 3.687.453.438 1.079.782 1.792 1.008a8 8 0 0 1-.038-.713c0-2.157.662-3.64 1.718-4.414a.33.33 0 0 1 .2-.067V9h.004v.002q.106-.001.2.067h.003c1.055.774 1.718 2.258 1.718 4.414 0 .236-.016.496-.043.765.853-.258 1.555-.706 2.038-1.316a1 1 0 0 1 .067-.074c1.419-1.37 1.43-4.044.123-6.143l-1.467 1.26a.752.752 0 0 1-1.24-.568c0-2.486-1.73-4.727-4.018-5.303" clip-rule="evenodd" />
</svg>
